X: 39965
T: Three Around Three
R: barndance
M: 4/4
K: Gmajor
|:B>c|d2 B>A G2 G2|A2 B>A G2 D2|E>DE>F G2 [FA]>B|c2 B2 B2 A2|
d2 B>A G2 G>B|A2 B>A (3GAG D2|1 E>DE>F G2 B>G|A>G F2 G2:|2 E>DE>F G2 B2|A>G F2 G4||
|:d2 e>f g>fe>d|e2 e2 e2 [cg]>e|d2 B2 G2 B2|c>BA>G A4|
[d2g2] e>f g>fe>d|1 e2 e2 e2 g>e|d2 G>B c>BA>F|A2 G2 G4:|2 e2 e2 e2 c>A|B2 G>B F>G (3AFG|A2 G2 G2||

